X: 23278
T: Leaving The Nest
R: jig
M: 6/8
K: Bminor
fdB FBd|ecA EAc|d2c dcB|cde dcB|
fdB FBd|ecA EAc|d2c dcB|cBA B3:|
d2c dcB|cde dcB|cde fdB|ced cBA|
d2c dcB|cde dcB|fdB FBd|ecA B2c:|
d3 def|eaa fed|f2f a2b|afa b2a|
baf efg|fdB AFA|fdB FBd|ecA B3:|

